X:1
T:Jupes Fendues
R:Bourree
C:Ph. PRIEUR / F. PARIS
M:2/4
L:1/8
K:D
D>E FD|A>G FE|D>E FD|A2 B=c| \
D>E FD|A>G FE|D>E FD|E4:|
A>F GA|B>G AB|=c>A Bc|d>=c BA| \
A>F GA|B>G AB|=cB AG|F4:|
